pix_core/e/table.svg

<svg preserveAspectRatio="xMinYMid meet" viewBox="0 0 512 512" xmlns="http://www.w3.org/2000/svg"><path d="m64 256v-96h160v96zm0 64h160v96h-160zm224 96v-96h160v96zm160-160h-160v-96h160zm-384-224c-35.3 0-64 28.7-64 64v320c0 35.3 28.7 64 64 64h384c35.3 0 64-28.7 64-64v-320c0-35.3-28.7-64-64-64z" fill="#fff"/></svg>

<svg xmlns="http://www.w3.org/2000/svg" viewBox="0 0 512 512" preserveAspectRatio="xMinYMid meet"><path fill="#fff" d="M64 256V160H224v96H64zm0 64H224v96H64V320zm224 96V320H448v96H288zM448 256H288V160H448v96zM64 32C28.7 32 0 60.7 0 96V416c0 35.3 28.7 64 64 64H448c35.3 0 64-28.7 64-64V96c0-35.3-28.7-64-64-64H64z"/></svg>
